src/pos-icons/bell-minus.svg

<svg height="24" viewBox="0 0 24 24" width="24" xmlns="http://www.w3.org/2000/svg"><path d="m14 17h8v2h-8m-2-17a2 2 0 0 0 -2 2 2 2 0 0 0 0 .29c-2.88.85-5 3.53-5 6.71v6l-2 2v1h9v-5h7v-4c0-3.18-2.12-5.86-5-6.71a2 2 0 0 0 0-.29 2 2 0 0 0 -2-2m-2 19a2 2 0 0 0 2 2 2 2 0 0 0 2-2h-2z"/></svg>

<?xml version="1.0" encoding="UTF-8"?><!DOCTYPE svg PUBLIC "-//W3C//DTD SVG 1.1//EN" "http://www.w3.org/Graphics/SVG/1.1/DTD/svg11.dtd"><svg xmlns="http://www.w3.org/2000/svg" xmlns:xlink="http://www.w3.org/1999/xlink" version="1.1" id="mdi-bell-minus" width="24" height="24" viewBox="0 0 24 24"><path d="M14 17H22V19H14M12 2A2 2 0 0 0 10 4A2 2 0 0 0 10 4.29C7.12 5.14 5 7.82 5 11V17L3 19V20H12V15H19V11C19 7.82 16.88 5.14 14 4.29A2 2 0 0 0 14 4A2 2 0 0 0 12 2M10 21A2 2 0 0 0 12 23A2 2 0 0 0 14 21H12Z" /></svg>
